X:1
T:There Is No Love Like the Love of Jesus
T:Theodore E. Perkins, harm. H. Elliott Button
T:There Is No Love Like the Love of Jesus
T:Public Domain
T:Public Domain
T:Public Domain
C:Theodore E. Perkins, harm. H. Elliott Button
Z:Public Domain
%%score ( 1 2 ) ( 3 4 )
L:1/8
M:4/4
K:Ab
V:1 treble 
V:2 treble 
V:3 bass 
V:4 bass 
V:1
 E2 | [Ac]2 [Ac]2 [Ac]2 [AB][Ac] | [Ad]2 [Ac]2 (FG) A2 | [EB]2 [EB][EB] [=DB]2 [FA]2 | [EG]6 E2 | %5
w: 1.~There|no love like the love|of Je- sus, * Ne-|fade or fall, Till in-|to the|
w: 2.~There|no eye like the eye|of Je- sus, * Pierc-|far a- way; Ne’er out|of the|
w: 3.~There|no voice like the voice|of Je- sus, * Ten-|sweet its chime— Like mu-|si- cal|
w: 4.~There|no heart like the heart|of Je- sus, * Filled|ten- der love; No throb|no- r|
w: 5.~Oh,|us hark to the voice|of Je- sus, * Then|ne- ver roam; And we|shall rest|
 [Ec]2 [Ec][Ec] [Ec]2 [DB][Ec] | [Fd]2 [Ec]2 [DB]2 [CA][B,F] | [CE]4 [EA]2 [DB]2 | [CA]6 z2 || %9
w: of the peace of God He|has ga- thered us all.|||
w: of its ten- der light Can|the wan- der- er stray.|||
w: of a flow- ing spring In|the bright sum- mer time.|Je- sus’ love!|pre-|
w: that our hearts can know, But|He feels it a- bove.|||
w: His lov- ing breast, In the|dear heav- en- ly home.|||
"^Refrain" [Fd]2 F2 [FA]4 | [Ec]2 [CE]2 [EA]4 | [EB]2 [EB][EB] [=DB]2 [FA]2 | (G2 F2 E2) [DE]2 | %13
w: ||||
w: ||||
w: cious love! Bound-|and pure and|free! Oh, turn to that|love, * * wea-|
w: ||||
w: ||||
 [Cc]2 [Ec][Ec] [Ac]2 [AB][Ac] | [Ad]2 [Ac]2 [EB]2 [EA][DF] | [CE]4 [EA]2 [DB]2 | [CA]6 |] %17
w: ||||
w: ||||
w: wan- d’ring soul! Je- sus plead-|eth for thee. * *|||
w: ||||
w: ||||
V:2
 E2 | x8 | x4 B2 A2 | x8 | x6 E2 | x8 | x8 | x8 | x8 || x2 F2 x4 | x8 | x8 | G6 x2 | x8 | x8 | x8 | %16
w: is||ver to||fold||||||||||||
w: is||ing so||sight||||||||||||
w: is||der and||ring|||||less|||ry,||||
w: is||with a||throe||||||||||||
w: let||we shall||on||||||||||||
 x6 |] %17
w: |
w: |
w: |
w: |
w: |
V:3
 [E,E]2 | [A,E]2 [A,E]2 [A,E]2 [A,D][A,E] | [A,F]2 [A,E]2 [A,D]2 [A,C]2 | %3
 [G,B,]2 [G,B,][G,B,] [F,B,]2 [=D,B,]2 | [E,B,]6 [G,B,]2 | A,2 A,A, A,2 A,A, | %6
 A,2 A,2 [E,G,]2 [F,A,][D,A,] | [E,A,]4 [E,C]2 [E,G,]2 | A,6 z2 || [D,A,]2 [D,A,]2 [D,A,]4 | %10
 A,2 A,2 [A,C]4 | [G,B,]2 [G,B,][G,B,] [F,B,]2 [=D,B,]2 | (B,2 D2 C2) [G,B,]2 | %13
 A,2 [A,C][A,C] [A,E]2 [_G,E][G,E] | [F,D]2 [E,E]2 [D,G,]2 [C,A,][D,A,] | [E,A,]4 [E,C]2 [E,G,]2 | %16
 [A,,A,]6 |] %17
V:4
 x2 | x8 | x8 | x8 | x8 | A,2 A,A, A,2 A,A, | A,2 A,2 x4 | x8 | A,6 x2 || x8 | A,2 A,2 x4 | x8 | %12
 E,6 x2 | A,2 x6 | x8 | x8 | x6 |] %17

